!!!OTL: 1330. Artilleristen-Lied.
!!!ARE: Europa, Mitteleuropa, Deutschland
!!!SCT: E1330
!!!TXL: @@DE
!!!YEM: Copyright 1995, estate of Helmut Schaffrath.
**kern	**text
*ICvox	*
*M2/4	*
*k[]	*
*C:	*
!LO:TX:a:t=Frisch und kräftig.	!
{8g	Das
=1	=1
4cc	Feu-
8bL	-er-
8aJ	.
=2	=2
4.g	-rohr
8g	aus
=3	=3
8aL	Erʒ
8gJ	.
8aL	ge-
8bJ	.
=4	=4
4cc	-goſ-
8g}	-ſen
{8g	re-
=5	=5
4a	-gie-
4g	-ret
=6	=6
4f	un-
4e	-ſre
=7	=7
4d	ſtar-
4g	-ke
=8	=8
4e	Fauſt,
8r}	.
{8g	Auf
=9	=9
4cc	daß
8bL	mit
8aJ	.
=10	=10
4.g	Kunſt-
8g	-ge-
=11	=11
8aL	-ſchick
8gJ	.
8aL	ver-
8bJ	.
=12	=12
4cc	-ſchoſ-
8g}	-ſen
{8g	die
=13	=13
4a	Ku-
4g	-gel
=14	=14
4f	durch
4e	die
=15	=15
4d	Lüf-
4g	-te
=16	=16
4e	ſauſt.
8r}	.
{8g	Des
=17	=17
8e	Fein-
8g	-des
8g	Schaa-
8g	-ren
=18	=18
8a	ken-
8g	-nen
8g}	ſie,
{8g	die
=19	=19
8e	Don-
8g	-ner-
8g	-kraft
8g	der
=20	=20
8a	Ar-
8g	-till'-
8g}	-rie,
{8g	die
=21	=21
4cc	Don-
4dd	-ner-
=22	=22
4.ee	-kraft
8cc	der
=23	=23
4dd	Ar-
4b	-till'-
=24	=24
4cc	-rie!
8r}	.
==	==
!!!AGN: Staende -, Soldaten -, Kriegs - Lied
!!!ONB: ESAC (Essen Associative Code) Database: ERK3
!!!AMT: simple duple
!!!AIN: vox
!!!EED: Helmut Schaffrath
!!!EEV: 1.0
!!!GTL: Staendelieder (Berufslieder). 1. Soldaten- und Kriegslieder. Soldatenlieder seit dem 30jaehr. Kriege.
!!!URL-scan: https://rosdok.uni-rostock.de/mcrviewer/recordIdentifier/rosdok_ppn745177999/iview2/phys_0216.iview2?x=-128.77276441889308&y=210.88179577607661&scale=0.5870222003877485&rotation=0&layout=singlePageLayout
!!!ENC: Anna Maria Matuszewska
!!!EEV: 2024/12/27
*-	*-
